X: 28
M:4/4
L:1/8
K:G
"Moderato cantabile"B,D|E2 E2 E2 DE|G2 G2 A3 G/2A/2|
E2 E2 E2 DE|G3 B A2 GA|B2 AG E2 E2|E6:|
|:Bc|d2 B2 B2 AG|A2 A2 A2 GA|B2 AG E2 DB,|D6 B,D|
E2 E2 E2 DE|G3 B A2 GA|B2 AG E2 E2|E6:||

